_site/images/pro/feature-url.svg

<?xml version="1.0" encoding="UTF-8"?>
<svg width="80px" height="80px" viewBox="0 0 80 80" version="1.1" xmlns="http://www.w3.org/2000/svg" xmlns:xlink="http://www.w3.org/1999/xlink">
    <!-- Generator: Sketch 49 (51002) - http://www.bohemiancoding.com/sketch -->
    <title>feature-url</title>
    <desc>Created with Sketch.</desc>
    <defs></defs>
    <g id="feature-url" stroke="none" stroke-width="1" fill="none" fill-rule="evenodd">
        <g id="Group-3" transform="translate(12.000000, 12.000000)">
            <path d="M16.9131554,0 L39,16.9621381 L16.9131554,34 L16.9131554,25.3674833 L0.0447840298,25.3674833 L0.0447840298,13.2507323 C0.0447840298,13.2507323 -0.332736993,11.4342984 1.1044207,9.76837416 C2.5415784,8.10244989 5.0376944,8.25389755 5.0376944,8.25389755 L16.9897527,8.25389755 L16.9131554,0 Z" id="Path" fill="#9D9D9D"></path>
            <path d="M39.0868446,56 L17,39.0378619 L39.0868446,22 L39.0868446,30.6325167 L55.955216,30.6325167 L55.955216,42.7492677 C55.955216,42.7492677 56.332737,44.5657016 54.8955793,46.2316258 C53.4584216,47.8975501 50.9623056,47.7461024 50.9623056,47.7461024 L39.0102473,47.7461024 L39.0868446,56 Z" id="Path" fill="#9D9D9D"></path>
            <g id="Group-2" transform="translate(4.000000, 12.000000)" fill="#FFFFFF">
                <path d="M0.922885252,8.35708888 C1.43878384,8.35708888 1.8457705,7.94382624 1.8457705,7.43298771 C1.8457705,6.91640941 1.43878384,6.50888653 0.922885252,6.50888653 C0.406986664,6.50888653 0,6.91640941 0,7.43298771 C0,7.94382624 0.406986664,8.35708888 0.922885252,8.35708888 Z M0.922885252,4.2531613 C1.43878384,4.2531613 1.8457705,3.83989867 1.8457705,3.32906013 C1.8457705,2.81248183 1.43878384,2.40495896 0.922885252,2.40495896 C0.406986664,2.40495896 0,2.81248183 0,3.32906013 C0,3.83989867 0.406986664,4.2531613 0.922885252,4.2531613 Z M4.34547112,9.96996112 L6.75299786,0 L5.19383769,0 L2.81497198,9.96996112 L4.34547112,9.96996112 Z M8.54763708,9.96996112 L10.9551638,0 L9.39600364,0 L7.01713793,9.96996112 L8.54763708,9.96996112 Z" id="://"></path>
            </g>
            <g id="Group-2" transform="translate(42.000000, 34.000000)" fill="#FFFFFF">
                <path d="M0.922885252,8.35708888 C1.43878384,8.35708888 1.8457705,7.94382624 1.8457705,7.43298771 C1.8457705,6.91640941 1.43878384,6.50888653 0.922885252,6.50888653 C0.406986664,6.50888653 0,6.91640941 0,7.43298771 C0,7.94382624 0.406986664,8.35708888 0.922885252,8.35708888 Z M0.922885252,4.2531613 C1.43878384,4.2531613 1.8457705,3.83989867 1.8457705,3.32906013 C1.8457705,2.81248183 1.43878384,2.40495896 0.922885252,2.40495896 C0.406986664,2.40495896 0,2.81248183 0,3.32906013 C0,3.83989867 0.406986664,4.2531613 0.922885252,4.2531613 Z M4.34547112,9.96996112 L6.75299786,0 L5.19383769,0 L2.81497198,9.96996112 L4.34547112,9.96996112 Z M8.54763708,9.96996112 L10.9551638,0 L9.39600364,0 L7.01713793,9.96996112 L8.54763708,9.96996112 Z" id="://"></path>
            </g>
        </g>
    </g>
</svg>

<svg height="80" viewBox="0 0 80 80" width="80" xmlns="http://www.w3.org/2000/svg"><g fill="none" fill-rule="evenodd" transform="translate(12 12)"><path d="m16.9131554 0 22.0868446 16.9621381-22.0868446 17.0378619v-8.6325167h-16.86837137v-12.116751s-.37752102-1.8164339 1.05963667-3.48235814c1.4371577-1.66592427 3.9332737-1.51447661 3.9332737-1.51447661h11.9520583z" fill="#9d9d9d"/><path d="m39.0868446 56-22.0868446-16.9621381 22.0868446-17.0378619v8.6325167h16.8683714v12.116751s.377521 1.8164339-1.0596367 3.4823581c-1.4371577 1.6659243-3.9332737 1.5144766-3.9332737 1.5144766h-11.9520583z" fill="#9d9d9d"/><g fill="#fff"><path d="m.92288525 8.35708888c.51589859 0 .92288525-.41326264.92288525-.92410117 0-.5165783-.40698666-.92410118-.92288525-.92410118s-.92288525.40752288-.92288525.92410118c0 .51083853.40698666.92410117.92288525.92410117zm0-4.10392758c.51589859 0 .92288525-.41326263.92288525-.92410117 0-.5165783-.40698666-.92410117-.92288525-.92410117s-.92288525.40752287-.92288525.92410117c0 .51083854.40698666.92410117.92288525.92410117zm3.42258587 5.71679982 2.40752674-9.96996112h-1.55916017l-2.37886571 9.96996112zm4.20216596 0 2.40752672-9.96996112h-1.55916016l-2.37886571 9.96996112z" transform="translate(4 12)"/><path d="m.92288525 8.35708888c.51589859 0 .92288525-.41326264.92288525-.92410117 0-.5165783-.40698666-.92410118-.92288525-.92410118s-.92288525.40752288-.92288525.92410118c0 .51083853.40698666.92410117.92288525.92410117zm0-4.10392758c.51589859 0 .92288525-.41326263.92288525-.92410117 0-.5165783-.40698666-.92410117-.92288525-.92410117s-.92288525.40752287-.92288525.92410117c0 .51083854.40698666.92410117.92288525.92410117zm3.42258587 5.71679982 2.40752674-9.96996112h-1.55916017l-2.37886571 9.96996112zm4.20216596 0 2.40752672-9.96996112h-1.55916016l-2.37886571 9.96996112z" transform="translate(42 34)"/></g></g></svg>
